!!!!SEGMENT: Any1006c-Missa_Sine_nomine-Credo--Jena_21.krn
!!!id: Any1006c
!!!SMS: Jena 21
!!!AGN: Mass; Credo
!!!voices: 4
!!!OPR: Missa Sine nomine (Jena 21)
!!!COM: Anonymous
!!!OTL: Credo
**kern	**kern	**kern	**kern
*part4	*part3	*part2	*part1
*staff4	*staff3	*staff2	*staff1
*I"Bassus	*I"Tenor	*I"Altus	*I"Superius
*I'B	*I'T	*I'A	*I'S
*clefF4	*clefGv2	*clefGv2	*clefG2
*k[b-]	*k[b-]	*k[b-]	*k[b-]
*F:	*F:	*F:	*F:
*M2/1	*M2/1	*M2/1	*M2/1
*met(C|)	*met(C|)	*met(C|)	*met(C|)
=1	=1	=1	=1
!!section: Patrem
!!!OMD: Patrem
1r	0r	1G	0r
1D	.	1A	.
=2	=2	=2	=2
1E	1G	4G	1r
.	.	4A	.
.	.	4B-y	.
.	.	4c	.
1D	1A	1d	1a
=3	=3	=3	=3
1GG	2G	4B-y	1b-y
.	.	4c	.
.	2G	4d	.
.	.	4e	.
2D	4F	2f	1a
.	4G	.	.
2D	4A	2f	.
.	4B-y	.	.
=4	=4	=4	=4
2.AA	4c	2e	1a
.	4d	.	.
.	2.e	2.c	.
4BB-y	.	.	.
2C	.	.	2g
.	4d	4B-y	.
2D	[2d	[2A	2f
=5	=5	=5	=5
1E	2d]	2A]	1g
.	2c#i	2G	.
[1D	[1d	1A	[1f
=6	=6	=6	=6
2D]	2d]	2r	2f]
2D	2d	2f	2f
2D	2d	2f	2a
2D	2d	2f	2a
=7	=7	=7	=7
1GG	1d	1g	1b-y
2D	2d	2f	2a
2D	2d	2f	[2b-y
=8	=8	=8	=8
1F	2c	1f	2b-]
.	2A	.	1a
1G	1B-y	2.d	.
.	.	.	2g
.	.	4e	.
=9	=9	=9	=9
1F	0A	2.f	1a
.	.	4e	.
1F	.	1c	2r
.	.	.	2a
=10	=10	=10	=10
2F	2c	2.f	2a
2.F	2c	.	2.a
.	.	4f	.
.	2.c	2f	.
4F	.	.	4a
2F	.	2c	2b-y
.	4c	.	.
=11	=11	=11	=11
1C	2c	4e	2g
.	.	4d	.
.	2e-X	4c	2g
.	.	4B-y	.
2D	2d	2A	2f
[2GG	[2d	[2G	[2b-y
=12	=12	=12	=12
2GG]	2d]	4G]	2b-]
.	.	4G	.
2F	2c	2A	2a
2G	2B-y	2B-y	2g
[2F	[2c	2A	[2a
=13	=13	=13	=13
2F]	2c]	2c	2a]
2G	2B-y	2G	1g
2D	2A	2.d	.
2D	2A	.	2f#i
.	.	4d	.
=14	=14	=14	=14
1GG	0G	1B-y	0g
2B-y	.	2d	.
2B-y	.	2d	.
=15	=15	=15	=15
2A	0r	2c	1r
2A	.	2c	.
2G	.	2d	2b-y
2G	.	2e	2b-y
=16	=16	=16	=16
1D	0r	2f	2a
.	.	2d	2a
2r	.	2e	2g
2G	.	2e	2g
=17	=17	=17	=17
2F	2r	1f	2d
2D	2d	.	2f
2E	2c	1r	2g
2F	2c	.	2a
=18	=18	=18	=18
2G	2B-y	2r	2b-y
2D	2F	2f	2a
1r	2G	2e	2b-y
.	2A	2e	2cc
=19	=19	=19	=19
1GG	1B-y	2.d	1dd
.	.	4c	.
1AA	1c	1A	4cc
.	.	.	4b-y
.	.	.	4a
.	.	.	4g
=20	=20	=20	=20
2BB-y	1d	2r	2f
2BB-y	.	1f	2b-y
1F	2c	.	2a
.	2A	2f	[2cc
=21	=21	=21	=21
1G	1B-y	2d	2cc]
.	.	2e	1b-y
1F	1c	1f	.
.	.	.	2a
=22	=22	=22	=22
1BB-y	1B-y	1d	1b-y
2AA	1r	2c	1r
2BB-y	.	[2d	.
=23	=23	=23	=23
1GG	0r	2d]	1dd
.	.	4c	.
.	.	4B-y	.
1r	.	2A	2cc
.	.	2B-y	[2dd
=24	=24	=24	=24
0r	1r	1G	2dd]
.	.	.	4cc
.	.	.	4b-y
.	1d	2F	2a
.	.	2G	2b-y
=25	=25	=25	=25
1r	2c	1E	1g
.	1d	.	.
2r	.	1D	1f
2D	4c	.	.
.	4B-y	.	.
=26	=26	=26	=26
2F	2A	0r	0r
2.G	2B-y	.	.
.	2G	.	.
4E	.	.	.
[2F	[2d	.	.
=27	=27	=27	=27
2F]	4d]	0r	2r
.	4c	.	.
2D	1B-y	.	2d
1C	.	.	2e
.	2A	.	2e
=28	=28	=28	=28
1BB-y	1B-y	0r	2d
.	.	.	2f
1r	2r	.	4e
.	.	.	4d
.	2G	.	[2g
=29	=29	=29	=29
0r	2A	0r	2g]
.	2A	.	2f#i
.	2G	.	1g
.	2B-y	.	.
=30	=30	=30	=30
2r	4A	0r	0r
.	4G	.	.
2C	1c	.	.
2D	.	.	.
2D	2BnXi	.	.
=31	=31	=31	=31
2C	1c	1r	0r
2E	.	.	.
4D	1r	2r	.
4C	.	.	.
[2F	.	2c	.
=32	=32	=32	=32
2F]	0r	2d	1r
2E	.	2e	.
1F	.	2c	2r
.	.	[2f	2a
=33	=33	=33	=33
1G	1r	2f]	2b-y
.	.	2e	2b-y
1F	1c	1f	2a
.	.	.	2cc
=34	=34	=34	=34
2r	2d	2r	2b-y
2G	2B-y	2d	2g
2F	2c	1f	4a
.	.	.	4g
2D	[2d	.	4f
.	.	.	4e
=35	=35	=35	=35
2F	2d]	2f	2d
2G	4c	2.d	1g
.	4B-y	.	.
1D	1A	.	.
.	.	4c	.
.	.	4B-y	2f#i
.	.	4A	.
=36	=36	=36	=36
1r	1G	1B-y	1g
2.GG	2B-y	2.B-y	2d
.	2B-y	.	2d
4GG	.	4B-y	.
=37	=37	=37	=37
2GG	2B-y	2B-y	2d
2GG	2B-y	2B-y	2d
1C	1c	2.G	1e
.	.	4A	.
=38	=38	=38	=38
1GG	1B-y	1G	1d
1r	2d	2G	2b-y
.	2d	2G	2b-y
=39	=39	=39	=39
0r	2d	2G	2b-y
.	2d	2G	2b-y
.	[1d	2.G	2.b-y
.	.	4F	4a
=40	=40	=40	=40
0r	2d]	2D	2f
.	2B-y	1G	1b-y
.	1c	.	.
.	.	2F	2a
=41	=41	=41	=41
1r	1B-y	1G	1b-y
2GG	2G	2d	2b-y
2GG	2G	2d	2b-y
=42	=42	=42	=42
2.GG	2.G	2d	2.b-y
.	.	2d	.
4GG	4G	.	4b-y
2GG	2G	1d	2b-y
[2D	[2F	.	[2a
=43	=43	=43	=43
2D]	4F]	2.d	2a]
.	4G	.	.
2D	1A	.	2f
.	.	4c	.
1AA	.	2A	1e
.	2A	[2d	.
=44	=44	=44	=44
1BB-y	1F	2d]	1d
.	.	2c	.
2GG	1G	1d	1r
2C	.	.	.
=45	=45	=45	=45
2BB-y	2G	0r	0r
2C	2G	.	.
1GG	1G	.	.
=46	=46	=46	=46
0r	0r	1r	1.g
.	.	2G	.
.	.	2c	2g
=47	=47	=47	=47
1r	1r	2B-y	1g
.	.	2c	.
1C	1G	1G	1r
=48	=48	=48	=48
2BB-y	1.G	0r	0r
2C	.	.	.
1GG	.	.	.
.	2G	.	.
=49	=49	=49	=49
0r	0r	1r	1g
.	.	1c	2g
.	.	.	2g
=50	=50	=50	=50
1r	1r	2B-y	1g
.	.	2G	.
2r	2r	1c	2g
2GG	2G	.	2r
=51	=51	=51	=51
1C	1G	2G	0r
.	.	2r	.
2GG	2G	1r	.
2BB-y	2G	.	.
=52	=52	=52	=52
1AA	1F#i	1r	1r
2GG	2G	2r	2r
2r	2r	2G	2g
=53	=53	=53	=53
0r	0r	1c	1g
.	.	2G	2g
.	.	2B-y	2g
=54	=54	=54	=54
1r	1r	1A	1f#i
2G	2G	2G	2g
[2F	[2c	[2f	[2a
=55	=55	=55	=55
2F]	2c]	2f]	2a]
1BB-y	1d	2.f	1b-y
.	.	4d	.
2C	4c	2e	4a
.	4B-y	.	4g
=56	=56	=56	=56
0Dl	0Al	0dl	0fl
=57||	=57||	=57||	=57||
*M2/1	*M2/1	*M2/1	*M2/1
*met(C|)	*met(C|)	*met(C|)	*met(C|)
!!section: Et incarnatus
!!!OMD: Et incarnatus
0BB-y	0r	0r	0r
=58	=58	=58	=58
1AA	0r	0F	0r
1BB-y	.	.	.
=59	=59	=59	=59
1C	0r	1E	0r
1AA	.	1F	.
=60	=60	=60	=60
2.GG	0r	1G	0r
4AA	.	.	.
2BB-y	.	1G	.
[2C	.	.	.
=61	=61	=61	=61
4C]	0r	1.G	0r
4D	.	.	.
1E-X	.	.	.
4D	.	4F	.
4C	.	4E	.
=62	=62	=62	=62
0BB-y	0B-y	0D	0r
=63	=63	=63	=63
1D	1A	0r	0f
1D	1B-y	.	.
=64	=64	=64	=64
1C	1c	0r	1e
1D	1A	.	1f
=65	=65	=65	=65
2.GG	1G	0r	1g
4AA	.	.	.
2BB-y	1G	.	1g
2C	.	.	.
=66	=66	=66	=66
2BB-y	1B-y	0r	1g
2GG	.	.	.
1C	1G	.	1e
=67	=67	=67	=67
1D	2.F	1d	1f
.	4G	.	.
2r	2A	2c	2e
[2GG	[2B-y	[2d	2d
=68	=68	=68	=68
4GG]	2B-]	2d]	1g
4AA	.	.	.
4BB-y	1G	4c	.
4GG	.	4B-y	.
1D	.	2A	1a
.	2F#i	2A	.
=69	=69	=69	=69
2r	1G	1G	1b-y
1G	.	.	.
.	1A	1D	2a
2F	.	.	[2a
=70	=70	=70	=70
1G	1B-y	2r	2a]
.	.	1d	2g
1D	2A	.	2f
.	2F	2d	[2a
=71	=71	=71	=71
2BB-y	2G	1d	2a]
2GG	2B-y	.	1g
1D	2A	1d	.
.	2A	.	2f#i
=72	=72	=72	=72
0E-X	0G	1B-y	0g
.	.	1c	.
=73	=73	=73	=73
1D	0A	2d	0r
.	.	1f	.
1C	.	.	.
.	.	2e	.
=74	=74	=74	=74
1.BB-y	0B-y	1d	0f
.	.	[1d	.
2C	.	.	.
=75	=75	=75	=75
2D	0A	2d]	1f
2E	.	2c	.
[1F	.	2A	[1a
.	.	2B-y	.
=76	=76	=76	=76
1F]	1.F	1c	2a]
.	.	.	2g
1D	.	2d	2f
.	2G	2D	4e
.	.	.	4d
=77	=77	=77	=77
1AA	1A	1E	1c
1BB-y	[1G	2D	1d
.	.	2d	.
=78	=78	=78	=78
2C	1G]	4c	1e
.	.	4B-y	.
2E	.	4A	.
.	.	4G	.
1D	1F	1A	1f
=79	=79	=79	=79
0GGl	0Gl	0B-yl	0dl
=80||	=80||	=80||	=80||
*M2/1	*M2/1	*M2/1	*M2/1
*met(C|)	*met(C|)	*met(C|)	*met(C|)
!!section: Crucifixus
!!!OMD: Crucifixus
1F	1A	0r	0r
2F	2A	.	.
[2F	[2A	.	.
=81	=81	=81	=81
2F]	2A]	0r	0r
2F	2A	.	.
2.G	2.B-y	.	.
4G	4B-y	.	.
=82	=82	=82	=82
2D	2B-y	0r	0r
2E	2B-y	.	.
2.F	2.A	.	.
4D	4F	.	.
=83	=83	=83	=83
4E	4G	0r	0r
4F	4F	.	.
2D	1B-y	.	.
1C	.	.	.
.	2A	.	.
=84	=84	=84	=84
1BB-y	1B-y	2r	2r
.	.	2d	2b-y
1r	1r	2.d	2.b-y
.	.	4d	4b-y
=85	=85	=85	=85
0r	0r	2d	2b-y
.	.	2d	2b-y
.	.	2.f	2.a
.	.	4d	4f
=86	=86	=86	=86
0r	0r	4e	4g
.	.	4f	4f
.	.	2d	1b-y
.	.	1c	.
.	.	.	2a
=87	=87	=87	=87
1r	1r	1B-y	1b-y
2.BB-y	2.d	2.f	2.b-y
4BB-y	4d	4f	4b-y
=88	=88	=88	=88
2BB-y	2d	2f	2b-y
2BB-y	2d	2f	2b-y
2BB-y	2d	2f	2b-y
2BB-y	2d	2f	2b-y
=89	=89	=89	=89
0F	0c	1f	0a
.	.	2r	.
.	.	[2f	.
=90	=90	=90	=90
1F	1r	2f]	1a
.	.	2c	.
2C	1c	2c	2g
2C	.	[2e	2g
=91	=91	=91	=91
1E	2G	2e]	1g
.	2G	2c	.
1D	1B-y	2d	1f
.	.	[2f	.
=92	=92	=92	=92
1F	1A	2f]	1a
.	.	2c	.
2C	1c	2.e	2g
2C	.	.	2g
.	.	4d	.
=93	=93	=93	=93
1E	2G	4c	2.g
.	.	4B-y	.
.	2G	2c	.
.	.	.	4e
2D	2B-y	1d	2f
2D	[2A	.	2f
=94	=94	=94	=94
1F	2A]	1c	1a
.	4G	.	.
.	4F	.	.
1G	1E	1e	2g
.	.	.	2g
=95	=95	=95	=95
2F	2D	2A	2a
2D	1d	2A	2f
1E	.	1G	1g
.	2c#i	.	.
=96	=96	=96	=96
1D	1d	1A	1f
1r	2B-y	2f	2d
.	2B-y	2f	2d
=97	=97	=97	=97
0r	2.B-y	1f	4d
.	.	.	4e
.	.	.	4f
.	4A	.	4g
.	2F	2f	2a
.	2B-y	2g	2b-y
=98	=98	=98	=98
0r	2A	2a	2cc
.	2B-y	2d	1dd
.	1A	1e	.
.	.	.	2cc#i
=99	=99	=99	=99
0r	2r	1d	2dd
.	2B-y	.	2dd
.	2.B-y	1r	2.dd
.	4c	.	4cc
=100	=100	=100	=100
0r	2d	0r	2b-y
.	2c	.	2a
.	2B-y	.	2g
.	[2c	.	[2a
=101	=101	=101	=101
1r	4c]	0r	2a]
.	4B-y	.	.
.	2G	.	1g
2D	1A	.	.
2D	.	.	2f#i
=102	=102	=102	=102
2E-X	1G	0r	0g
2C	.	.	.
2BB-y	2r	.	.
2C	2G	.	.
=103	=103	=103	=103
2AA	2A	0r	2r
2GG	2B-y	.	2d
1r	2G	.	2e
.	2A	.	2f
=104	=104	=104	=104
0r	2B-y	0r	2d
.	2c	.	2e
.	2A	.	2f
.	2G	.	2g
=105	=105	=105	=105
2C	0r	1r	2e
2D	.	.	2d
2E	.	2G	1r
2C	.	2A	.
=106	=106	=106	=106
2D	0r	2B-y	1r
2E	.	2G	.
2F	.	2A	2f
2D	.	2B-y	2f
=107	=107	=107	=107
2C	1r	2c	2e
2D	.	2A	2f
2E	2G	2G	2g
2C	[2c	2g	2e
=108	=108	=108	=108
2.F	2c]	2f	2.a
.	2c	4c	.
4E	.	4d	4g
4C	1c	1e	4e
4D	.	.	4d
[2E	.	.	[2g
=109	=109	=109	=109
2E]	2B-y	2e	2g]
2F	2A	1c	1f
1C	1G	.	.
.	.	2c	2e
=110	=110	=110	=110
1D	1F	1A	1f
1BB-y	2F	1r	2r
.	2D	.	2f
=111	=111	=111	=111
0r	2.F	0r	2d
.	.	.	1f
.	4G	.	.
.	2A	.	.
.	[2B-y	.	4e
.	.	.	4d
=112	=112	=112	=112
0r	2B-]	0r	1c
.	2A	.	.
.	1B-y	.	1B-y
=113	=113	=113	=113
0r	0r	2r	2f
.	.	2f	2d
.	.	2d	2.f
.	.	[2f	.
.	.	.	4g
=114	=114	=114	=114
0r	0r	2f]	2a
.	.	4e	1b-y
.	.	4d	.
.	.	1c	.
.	.	.	2a
=115	=115	=115	=115
1.BB-y	1.F	1B-y	1b-y
.	.	2r	2f
2BB-y	2F	2f	2d
=116	=116	=116	=116
2.BB-y	2.F	2d	2f
.	.	2f	2d
4BB-y	4F	.	.
1BB-y	1F	2d	1B-y
.	.	[2B-y	.
=117	=117	=117	=117
2BB-y	2F	2B-]	2f
2BB-y	2F	2f	2d
2.BB-y	2.F	2d	2f
.	.	2f	2d
4BB-y	4F	.	.
=118	=118	=118	=118
0BB-y	1F	2d	2.B-y
.	.	2.B-y	.
.	.	.	4c
.	1B-y	.	1d
.	.	4A	.
.	.	[2F	.
=119	=119	=119	=119
2F	2A	2F]	2r
2D	2d	2f	2a
2F	2c	2f	2a
2BB-y	[2d	[2f	2b-y
=120	=120	=120	=120
2F	2d]	2f]	2a
2G	4c	2d	1g
.	4B-y	.	.
1D	1A	1d	.
.	.	.	2f#i
=121	=121	=121	=121
0GG	1G	1B-y	0g
.	2r	1r	.
.	2B-y	.	.
=122	=122	=122	=122
0r	2B-y	0r	2g
.	1B-y	.	2g
.	.	.	1g
.	2B-y	.	.
=123	=123	=123	=123
0r	1c	0r	2g
.	.	.	1a
.	2c	.	.
.	[2d	.	2f
=124	=124	=124	=124
0r	4d]	0r	2f
.	4c	.	.
.	4B-y	.	2g
.	4A	.	.
.	2G	.	2e
.	2F	.	2f
=125	=125	=125	=125
0r	1G	0r	2d
.	.	.	1g
.	1A	.	.
.	.	.	2f#i
=126	=126	=126	=126
1r	0G	1r	0g
2G	.	2d	.
2G	.	2d	.
=127	=127	=127	=127
1B-y	0r	1d	0r
2G	.	2d	.
2D	.	2d	.
=128	=128	=128	=128
2F	0r	2c	0r
2G	.	2B-y	.
2D	.	1A	.
[2F	.	.	.
=129	=129	=129	=129
2F]	0r	1c	0r
2F	.	.	.
2F	.	2c	.
2F	.	2c	.
=130	=130	=130	=130
4F	0r	2c	0r
4E	.	.	.
4D	.	2.d	.
4C	.	.	.
1BB-y	.	.	.
.	.	4c	.
.	.	4B-y	.
.	.	4A	.
=131	=131	=131	=131
2E-i	0r	4G	0r
.	.	4F	.
2D	.	1B-y	.
1C	.	.	.
.	.	2A	.
=132	=132	=132	=132
1BB-y	2r	1B-y	2r
.	2d	.	2b-y
1r	2d	1r	2b-y
.	2d	.	2b-y
=133	=133	=133	=133
0r	2d	0r	2b-y
.	2d	.	2b-y
.	2G	.	2.b-y
.	4F	.	.
.	4E	.	4a
=134	=134	=134	=134
0r	1D	0r	4f
.	.	.	4e
.	.	.	1a
.	2F	.	.
.	2G	.	[2g
=135	=135	=135	=135
0r	1A	0r	2g]
.	.	.	2f#i
.	1G	.	1g
=136	=136	=136	=136
0r	0r	2B-y	2g
.	.	2c	2a
.	.	2d	2b-y
.	.	2e	2cc
=137	=137	=137	=137
0r	0r	4f	2a
.	.	4e	.
.	.	4d	1dd
.	.	4c	.
.	.	2B-y	.
.	.	2d	2b-y
=138	=138	=138	=138
0r	0r	2e	4cc
.	.	.	4b-y
.	.	1g	4a
.	.	.	4g
.	.	.	1a
.	.	2f#i	.
=139	=139	=139	=139
2r	2r	1g	1g
2GG	2G	.	.
2GG	2G	1r	1r
2GG	2G	.	.
=140	=140	=140	=140
1BB-y	2F	0r	0r
.	2G	.	.
2D	2F	.	.
2E-i	[2B-y	.	.
=141	=141	=141	=141
2C	2B-]	1r	1r
2C	2A	.	.
1BB-y	1B-y	2r	2r
.	.	2d	2b-y
=142	=142	=142	=142
0r	0r	2d	2b-y
.	.	2d	2b-y
.	.	2.d	2.b-y
.	.	4d	4a
=143	=143	=143	=143
0r	0r	4e	1g
.	.	4d	.
.	.	4c	.
.	.	4B-y	.
.	.	2A	2f
.	.	2G	[2g
=144	=144	=144	=144
0r	0r	1B-y	4g]
.	.	.	4f
.	.	.	1b-y
.	.	1c	.
.	.	.	2a
=145	=145	=145	=145
*M3/1	*M3/1	*M3/1	*M3/1
*met(C|3)	*met(C|3)	*met(C|3)	*met(C|3)
1r	1r	0B-y	0b-y
1r	1r	.	.
1BB-y	1d	1f	1b-y
=146	=146	=146	=146
0BB-y	0d	0f	0b-y
1BB-y	1d	1f	1b-y
=147	=147	=147	=147
0F	0c	0f	0a
1E	1c	1g	1g
=148	=148	=148	=148
1F	0.c	1f	1a
1C	.	1e	1.g
[1F	.	1f	.
.	.	.	2f
=149	=149	=149	=149
1F]	1A	0.c	0f
0C	0G	.	.
.	.	.	1e
=150	=150	=150	=150
0D	0F	0A	0f
1C	1r	1c	1r
=151	=151	=151	=151
0BB-y	0D	0d	0.r
1AA	1F	1c	.
=152	=152	=152	=152
0GG	0G	0B-y	0d
1D	1A	1A	1f
=153	=153	=153	=153
1BB-y	0B-y	1G	0g
1GG	.	0d	.
1D	1A	.	1a
=154	=154	=154	=154
0GG	0G	2B-y	0b-y
.	.	2c	.
.	.	2d	.
.	.	2e	.
1D	1F	1f	1a
=155	=155	=155	=155
2.E	2G	1e	0g
.	2A	.	.
4F	.	.	.
2G	2B-y	2d	.
2C	2c	2e	.
1D	1A	1d	1f
=156	=156	=156	=156
0GG	0G	0B-y	2g
.	.	.	2a
.	.	.	2b-y
.	.	.	2cc
1r	1c	1r	1a
=157	=157	=157	=157
0.r	1B-y	1d	0g
.	1G	1e	.
.	1A	1f	1cc
=158	=158	=158	=158
0.r	0G	2g	1b-y
.	.	2d	.
.	.	1e	1g
.	1r	1f	1a
=159	=159	=159	=159
0.r	0.r	1g	1g
.	.	1f	1d
.	.	1g	1e
=160	=160	=160	=160
0.r	0.r	1d	1f
.	.	2B-y	1g
.	.	2c	.
.	.	1A	1f
=161	=161	=161	=161
0GG	0B-y	0G	0g
[1C	[1c	1r	1g
=162	=162	=162	=162
1C]	1c]	1r	1g
0E	0c	0G	0g
=163	=163	=163	=163
0D	0d	0A	0f
1D	1d	1F	1f
=164	=164	=164	=164
0D	0d	0f	0a
1F	1c	[1f	1a
=165	=165	=165	=165
1F	1c	1f]	1a
1G	0B-y	0d	1b-y
[1F	.	.	1b-y
=166	=166	=166	=166
1F]	0.c	0.f	1a
0AA	.	.	1.cc
.	.	.	2b-y
=167	=167	=167	=167
0.F	1d	1f	0b-y
.	1B-y	0f	.
.	1c	.	1a
=168	=168	=168	=168
0BB-y	0B-y	1.d	0b-y
.	.	2e	.
1D	1A	1f	1r
=169	=169	=169	=169
1.E-X	0G	0g	0b-y
2D	.	.	.
1C	1A	1e	1cc
=170	=170	=170	=170
0G	0B-y	1d	1.dd
.	.	1.g	.
.	.	.	2cc
1GG	[1G	.	2b-y
.	.	2f	2a
=171	=171	=171	=171
1BB-y	1G]	2e	1g
.	.	2d	.
0AA	1.A	1.c	1.cc
.	2B-y	2d	2b-y
=172	=172	=172	=172
1AA	1c	1e	2a
.	.	.	2g
0D	1A	1d	1.f
.	[1d	[1f	.
.	.	.	2g
=173	=173	=173	=173
1D	0d]	1f]	1a
1GG	.	0g	1.b-y
1G	1B-y	.	.
.	.	.	2a
=174	=174	=174	=174
1C	1c	1e	0g
0D	0A	0d	.
.	.	.	1f#i
=175	=175	=175	=175
0.GGl	0.Gl	0.dl	0.gl
==	==	==	==
*-	*-	*-	*-
!!!system-decoration: s1,s2,s3,s4
!!!RDF**kern: i = editorial accidental
!!!RDF**kern: l = terminal long
!!!ENC: Maura Sugg
!!!END: 2026/6/28
!!!EED: Benjamin Ory
!!!EEV: 2026/07/14
!!!YEC: Copyright 2026 Benjamin Ory, All Rights Reserved
!!!ONB: Translated from MusicXML on 2026/07/14
!!!verovio: header encoded
!!!header-left: Edited by Zoe Saunders (2010)\n
!!!header-right:
!!!header-center:
!!muse2ps: T^@{OPR}^u^@{ONM}{. }@{OTL}^C^@{COM}^i2I150v90,90,90,120c120z18l2770t130
